X:4
T:The Tap Room
R:Reel
S:Paddy Canny, Clare (fiddle)
D:Home tape of unknown provenance
N:As played
Z:Bernie Stocks
M:4/4
K:D
|: ~E2BE dEBc | dBAF DEFD | ~E2BE dEBE | dBAd BE{G}ED |
~E2BE dEBc | dBAF DEFD | afge (3.f.f.d ec | dBAd GE{G}ED :|
|: ~B2ef {a}gfeB | dBAF DEFD | (3Bcd ef gfeB | dBAd BE{G}ED |
~B2ef {a}gfeB | dBAF DEFD | afge (3.f.f.d ec | dBAd GE{G}ED :|
<end>
<start>
